img/profit.svg

<svg width="81" height="80" viewBox="0 0 81 80" fill="none" xmlns="http://www.w3.org/2000/svg">
<path d="M80.5 40C80.5 62.0914 62.5914 80 40.5 80C18.4086 80 0.5 62.0914 0.5 40C0.5 17.9086 18.4086 0 40.5 0C62.5914 0 80.5 17.9086 80.5 40Z" fill="#F5EBE6"/>
<path d="M60.7851 26.9186C60.2088 24.7012 58.8332 23.1167 56.6963 22.209C55.0589 21.5134 53.5383 21.4721 53.2461 21.471C52.7914 21.435 52.3229 21.4852 51.855 21.6191C50.248 22.0799 48.6082 23.5445 46.9813 25.9722C45.7368 27.8292 44.9422 29.6035 44.7975 29.9366C43.3527 32.4506 40.5992 35.1485 40.5721 35.1743C39.6057 36.1099 39.1327 37.1384 39.1661 38.2314C39.2213 40.0621 40.6994 41.3262 40.7122 41.3365C42.4264 42.9684 44.5471 43.4597 46.4795 43.4597C47.9563 43.4596 49.3233 43.1727 50.3142 42.8884C51.6103 42.5172 52.4996 42.0921 52.5985 42.044C54.9617 40.856 56.8634 39.3276 58.2505 37.5012C59.3625 36.0371 60.1484 34.379 60.5865 32.5729C61.3447 29.4469 60.7911 26.9438 60.7851 26.9186Z" fill="#D9C2B5"/>
<path d="M60.7851 26.9186C60.2088 24.7012 58.8332 23.1167 56.6963 22.2089C55.0589 21.5134 53.5383 21.4721 53.2461 21.471C52.7914 21.435 52.3229 21.4852 51.855 21.619C50.248 22.0799 48.6082 23.5445 46.9813 25.9722C45.7368 27.8292 44.9422 29.6034 44.7975 29.9366C43.3527 32.4506 40.5992 35.1485 40.5721 35.1743C39.6057 36.1099 39.1327 37.1384 39.1661 38.2314C39.2213 40.062 40.6994 41.3262 40.7122 41.3365C42.4264 42.9684 44.5471 43.4597 46.4795 43.4597C47.9563 43.4596 49.3233 43.1727 50.3142 42.8884C51.6103 42.5172 52.4996 42.0921 52.5985 42.044C54.9617 40.856 56.8634 39.3276 58.2505 37.5012C59.3625 36.0371 60.1484 34.379 60.5865 32.5729C61.3447 29.4469 60.7911 26.9438 60.7851 26.9186ZM52.3275 37.7084C52.1828 37.8034 52.0837 37.9494 52.0487 38.1192C52.0136 38.2891 52.0468 38.4624 52.1421 38.607C52.1637 38.6399 52.6741 39.405 53.7603 39.8783C53.1907 40.2516 52.6208 40.5802 52.0185 40.8829C51.9295 40.9255 51.1158 41.3087 49.9563 41.6411C47.4878 42.3491 44.0315 42.7046 41.5835 40.3755C41.5391 40.3358 40.4951 39.391 40.4631 38.1845C40.4438 37.4746 40.7844 36.7754 41.4753 36.1063C41.5935 35.9918 44.3873 33.2718 45.9419 30.5495L45.9735 30.4858C45.9808 30.469 46.7118 28.7877 47.8538 27.0072C48.8902 25.3915 50.4876 23.3615 52.213 22.8665C52.4657 22.7943 52.7155 22.7579 52.9595 22.7579C53.029 22.7579 53.098 22.7609 53.1664 22.7668L53.2352 22.7686C53.2862 22.7649 58.3473 22.6993 59.5252 27.2291C59.5264 27.2338 59.6371 27.7399 59.6812 28.557C59.6793 28.557 59.6774 28.557 59.6755 28.557C59.2196 28.557 58.9018 28.1401 58.8884 28.1221C58.6791 27.8352 58.2742 27.7696 57.9857 27.9764C57.8446 28.0775 57.7513 28.2274 57.7232 28.3986C57.695 28.5694 57.7351 28.741 57.8361 28.8816C58.1624 29.3374 58.8337 29.8597 59.6667 29.8596C59.6721 29.8596 59.6775 29.8595 59.6829 29.8595C59.5579 32.38 58.6549 35.9808 55.0852 38.9116C53.8184 38.735 53.2471 37.9241 53.2236 37.8899C53.0266 37.5952 52.6249 37.5134 52.3275 37.7084Z" fill="#66452E" stroke="#66452E" stroke-width="2"/>
<path d="M46.1774 36.5021C45.6072 36.4826 45.3784 35.8459 45.369 35.8193C45.259 35.489 44.898 35.306 44.5628 35.4122C44.4 35.4648 44.2673 35.5776 44.1894 35.7299C44.1113 35.8822 44.0973 36.0557 44.1499 36.2185C44.332 36.7803 44.9546 37.7419 46.1341 37.7825C46.1404 37.7827 46.1468 37.7828 46.1531 37.7828C46.2147 37.7828 46.2749 37.7744 46.3324 37.7577C46.6006 37.6812 46.7871 37.4425 46.7967 37.1637C46.8024 36.9926 46.7411 36.8297 46.6244 36.7047C46.5074 36.5797 46.3488 36.5077 46.1774 36.5021Z" fill="#7A563D" stroke="#7A563D"/>
<path d="M52.4431 33.9636H52.4433C51.8746 33.9443 51.6448 33.3073 51.6354 33.2809C51.5253 32.9491 51.1711 32.7701 50.8292 32.8732C50.6659 32.9258 50.5331 33.0388 50.4551 33.1915C50.3773 33.3439 50.3634 33.5174 50.4163 33.6801C50.5984 34.2419 51.221 35.2035 52.3999 35.244C52.4064 35.2442 52.4126 35.2443 52.419 35.2443C52.4805 35.2443 52.5407 35.2359 52.5982 35.2193C52.8664 35.1426 53.0529 34.9039 53.0626 34.6253C53.0683 34.4542 53.007 34.2912 52.8902 34.1662C52.7732 34.0413 52.6144 33.9693 52.4431 33.9636Z" fill="#7A563D" stroke="#7A563D"/>
<path d="M53.5851 26.7079C53.5908 26.5368 53.5295 26.3738 53.4128 26.2489C53.2957 26.1239 53.1371 26.0519 52.9658 26.0462C52.411 26.0273 52.1825 25.4318 52.1586 25.3647C52.0475 25.0295 51.6868 24.8456 51.3523 24.9564C51.1893 25.009 51.0564 25.1218 50.9783 25.274C50.9003 25.4263 50.8863 25.5998 50.9388 25.7627C51.121 26.3245 51.7438 27.2861 52.9225 27.3266C52.9289 27.3268 52.9352 27.3269 52.9416 27.3269C53.003 27.3269 53.0633 27.3185 53.1208 27.3019C53.389 27.2254 53.5755 26.9866 53.5851 26.7079Z" fill="#7A563D" stroke="#7A563D"/>
<path d="M25.1136 38.8475C26.166 39.2309 27.139 39.2827 27.588 39.2827C27.6916 39.2827 27.7673 39.28 27.8097 39.2779C28.1662 39.2882 28.5252 39.2293 28.8796 39.107C31.7796 38.1085 33.779 32.9739 33.996 32.3951C35.0108 30.3932 37.0263 28.2009 37.0465 28.1791C37.7557 27.4173 38.0799 26.6029 38.0101 25.7584C37.8927 24.3385 36.6986 23.4266 36.6886 23.4193C34.2348 21.3164 30.9468 22.0089 29.2053 22.6087C28.2199 22.9477 27.5495 23.3126 27.4748 23.3538C23.4457 25.6509 22.1035 28.777 21.6872 30.9949C21.2284 33.4388 21.7565 35.3525 21.7622 35.3725C22.2975 37.0632 23.4251 38.2324 25.1136 38.8475Z" fill="#D9C2B5"/>
<path d="M25.1136 38.8475C26.166 39.2309 27.139 39.2827 27.588 39.2827C27.6916 39.2827 27.7673 39.28 27.8097 39.2779C28.1662 39.2882 28.5252 39.2293 28.8796 39.107C31.7796 38.1085 33.779 32.9739 33.996 32.3951C35.0108 30.3932 37.0263 28.2009 37.0465 28.1791C37.7557 27.4173 38.0799 26.6029 38.0101 25.7584C37.8927 24.3385 36.6986 23.4266 36.6886 23.4193C34.2348 21.3164 30.9468 22.0089 29.2053 22.6087C28.2199 22.9477 27.5495 23.3126 27.4748 23.3538C23.4457 25.6509 22.1035 28.777 21.6872 30.9949C21.2284 33.4388 21.7565 35.3525 21.7622 35.3725C22.2975 37.0632 23.4251 38.2324 25.1136 38.8475ZM23.1794 34.3672C23.3544 34.5831 23.6724 34.6175 23.8882 34.444C23.9938 34.3602 24.0604 34.2402 24.0757 34.1061C24.091 33.9715 24.053 33.8389 23.9685 33.7328C23.6965 33.3921 23.1504 33.0136 22.5035 33.0503C22.4985 31.1004 23.0505 28.2875 25.6851 25.882C26.6732 25.968 27.1394 26.5688 27.1587 26.5943C27.3245 26.8158 27.6414 26.8624 27.8645 26.6986C27.9734 26.6187 28.0446 26.5011 28.065 26.3674C28.0854 26.2337 28.0525 26.1 27.9725 25.991C27.9546 25.9665 27.5332 25.399 26.6767 25.0759C27.0977 24.7677 27.5223 24.4925 27.9736 24.2356C27.9791 24.2324 28.6019 23.8873 29.5352 23.5659C31.4121 22.9196 34.0658 22.5055 36.0489 24.2038C36.0847 24.2326 36.9276 24.9198 37.0014 25.8475C37.0444 26.3944 36.8101 26.9471 36.3048 27.4901C36.2182 27.5833 34.1701 29.7975 33.0793 31.9645L33.0573 32.0149C33.0377 32.0675 31.0743 37.2802 28.5496 38.1492C28.3044 38.2342 28.0585 38.273 27.819 38.2651L27.7649 38.2663C27.7553 38.2671 26.7713 38.3368 25.6416 37.9661C24.6256 37.6327 23.2959 36.8611 22.7315 35.0785C22.7305 35.0752 22.6263 34.7008 22.558 34.0653C22.9049 34.0488 23.1685 34.3542 23.1794 34.3672Z" fill="#66452E" stroke="#66452E" stroke-width="2"/>
<path d="M32.6625 27.3814C33.1116 27.3734 33.3069 27.867 33.3089 27.872C33.3858 28.0673 33.5763 28.1877 33.7772 28.1877C33.8359 28.1877 33.8955 28.1774 33.9533 28.1558C34.0783 28.108 34.177 28.0144 34.2313 27.8924C34.2854 27.7711 34.2889 27.6358 34.2412 27.5119C34.0794 27.0903 33.5689 26.3842 32.6746 26.3842C32.6645 26.3842 32.6544 26.3843 32.6442 26.3845C32.5914 26.3856 32.5398 26.3947 32.4906 26.4114C32.285 26.4823 32.1495 26.6755 32.1535 26.8924C32.1589 27.1673 32.3882 27.3862 32.6625 27.3814Z" fill="#7A563D" stroke="#7A563D"/>
<path d="M27.9151 29.5963C27.9183 29.5963 27.9215 29.5963 27.9247 29.5962C28.3663 29.59 28.5629 30.0667 28.5711 30.0867C28.6479 30.2828 28.8347 30.4019 29.0368 30.4019C29.0956 30.4019 29.1558 30.3918 29.215 30.3705C29.3397 30.3229 29.4384 30.2297 29.4928 30.1082C29.5473 29.9866 29.551 29.8511 29.5034 29.7266C29.3399 29.3002 28.818 28.58 27.9064 28.5992C27.8535 28.6004 27.8019 28.6094 27.7529 28.6262C27.5472 28.6969 27.4118 28.8902 27.4158 29.1071C27.4209 29.3787 27.6441 29.5963 27.9151 29.5963Z" fill="#7A563D" stroke="#7A563D"/>
<path d="M27.8417 35.7339H27.8416C28.2889 35.7253 28.4855 36.2189 28.4874 36.2238C28.5646 36.4208 28.7537 36.5418 28.9529 36.5417C29.0124 36.5417 29.0727 36.5309 29.1313 36.5082C29.256 36.4605 29.3549 36.3674 29.4094 36.2459C29.4641 36.1243 29.468 35.9888 29.4203 35.8643C29.2568 35.4379 28.7368 34.7181 27.8234 34.7369C27.7704 34.738 27.7188 34.7471 27.6698 34.7639C27.4641 34.8346 27.3286 35.0279 27.3327 35.2447C27.338 35.5197 27.5633 35.7405 27.8417 35.7339Z" fill="#7A563D" stroke="#7A563D"/>
<path d="M40.7559 48.3177C35.017 41.4045 27.998 44.745 27.927 44.7798C26.3548 45.6002 25.3991 46.9134 25.0865 48.6828C24.8468 50.0396 25.0805 51.1914 25.1307 51.412C25.1832 51.7614 25.3023 52.1057 25.4846 52.4355C26.9715 55.1173 32.376 56.1954 32.9837 56.3087C35.0981 56.9499 37.5603 58.5129 37.6657 58.5802C38.3003 58.991 38.9265 59.1974 39.5354 59.1973C39.7655 59.1973 39.9932 59.1678 40.2178 59.1088C41.5847 58.7495 42.2863 57.4128 42.2917 57.4014C43.936 54.6212 42.6838 51.5034 41.7911 49.8924C41.258 48.9314 40.761 48.3239 40.7559 48.3177Z" fill="#D9C2B5"/>
<path d="M40.7559 48.3177C35.017 41.4045 27.998 44.745 27.927 44.7798C26.3548 45.6002 25.3991 46.9134 25.0865 48.6828C24.8468 50.0396 25.0805 51.1914 25.1307 51.412C25.1832 51.7614 25.3023 52.1057 25.4846 52.4355C26.9715 55.1173 32.376 56.1954 32.9837 56.3087C35.0981 56.9499 37.5603 58.5129 37.6657 58.5802C38.3003 58.991 38.9265 59.1974 39.5354 59.1973C39.7655 59.1973 39.9932 59.1678 40.2178 59.1088C41.5847 58.7495 42.2863 57.4128 42.2917 57.4014C43.936 54.6212 42.6838 51.5034 41.7911 49.8924C41.258 48.9314 40.761 48.3239 40.7559 48.3177ZM29.1628 46.0002C28.9807 46.2098 29.002 46.529 29.2102 46.712C29.4199 46.8965 29.7404 46.8764 29.9249 46.6669C30.2135 46.3398 30.492 45.7383 30.3425 45.1062C32.2621 44.7633 35.1284 44.8185 37.9551 46.9946C38.0415 47.9754 37.5317 48.5456 37.5102 48.5691C37.3205 48.7711 37.3291 49.0909 37.5294 49.282C37.7311 49.4749 38.0522 49.4674 38.2455 49.2655C38.2665 49.2432 38.7531 48.7204 38.9211 47.8314C39.2983 48.1922 39.6431 48.5624 39.9742 48.9613C39.9929 48.9846 40.4382 49.5414 40.9048 50.3833C41.8675 52.1194 42.7365 54.6604 41.4079 56.9081C41.3858 56.9484 40.8572 57.8973 39.9548 58.1309C39.4236 58.2686 38.8385 58.1337 38.2158 57.7302C38.1897 57.7133 35.5822 56.0319 33.2492 55.3311L33.1952 55.3181C33.1816 55.3156 31.7928 55.0594 30.2473 54.5069C27.7158 53.6019 26.7421 52.6141 26.3709 51.9446C26.2445 51.7172 26.1635 51.4824 26.1298 51.2449L26.119 51.1923C26.1091 51.1542 25.1707 47.3607 28.3841 45.6831C28.3874 45.6814 28.7416 45.5125 29.3525 45.3362C29.4313 45.6797 29.1656 45.997 29.1628 46.0002Z" fill="#66452E" stroke="#66452E" stroke-width="2"/>
<path d="M37.4591 55.7608C37.4994 55.771 37.5401 55.7759 37.5805 55.7759C37.6696 55.7759 37.7574 55.7517 37.8359 55.7045C38.2264 55.4691 38.841 54.8311 38.6673 53.9337C38.6569 53.8818 38.639 53.8325 38.614 53.7874C38.5096 53.5971 38.2964 53.4975 38.0837 53.5387C37.8143 53.5919 37.638 53.8551 37.6907 54.1255C37.7745 54.557 37.3389 54.8371 37.3208 54.8487C37.0896 54.9901 37.0143 55.2969 37.153 55.5327C37.2214 55.6474 37.3301 55.7284 37.4591 55.7608Z" fill="#7A563D" stroke="#7A563D"/>
<path d="M34.4556 51.4796C34.4958 51.4897 34.5365 51.4947 34.5769 51.4947C34.6658 51.4947 34.7533 51.4706 34.8315 51.4234C35.2222 51.1882 35.8372 50.5504 35.6634 49.6525C35.6531 49.6007 35.6352 49.5514 35.6102 49.5061C35.5057 49.316 35.2927 49.2162 35.0798 49.2576C34.8104 49.3108 34.6342 49.574 34.6869 49.8444C34.7703 50.2746 34.3351 50.5553 34.3169 50.5669C34.0815 50.7113 34.009 51.0052 34.1486 51.2511C34.2173 51.366 34.3262 51.4471 34.4556 51.4796Z" fill="#7A563D" stroke="#7A563D"/>
<path d="M28.6281 50.8283C28.7117 51.2614 28.277 51.5388 28.2587 51.5503C28.0245 51.6939 27.9488 52.0008 28.0898 52.2344C28.1583 52.3494 28.2671 52.4306 28.3964 52.4631C28.4366 52.4732 28.4773 52.4782 28.5178 52.4782C28.6067 52.4782 28.6943 52.4539 28.7727 52.4068C29.1634 52.1715 29.7783 51.5339 29.6046 50.6364C29.5943 50.5845 29.5763 50.5352 29.5514 50.4901C29.4469 50.2999 29.2337 50.2 29.0211 50.2414C28.7517 50.2941 28.5754 50.5573 28.6281 50.8283Z" fill="#7A563D" stroke="#7A563D"/>
</svg>

<svg width="81" height="80" fill="none" xmlns="http://www.w3.org/2000/svg"><path d="M80.5 40c0 22.091-17.909 40-40 40S.5 62.091.5 40s17.909-40 40-40 40 17.909 40 40z" fill="#F5EBE6"/><path d="M60.785 26.919c-.576-2.218-1.952-3.802-4.089-4.71a9.517 9.517 0 0 0-3.45-.738 3.924 3.924 0 0 0-1.39.148c-1.608.46-3.248 1.925-4.875 4.353a27.139 27.139 0 0 0-2.184 3.965c-1.444 2.514-4.198 5.211-4.225 5.237-.966.936-1.44 1.964-1.406 3.057.055 1.831 1.533 3.095 1.546 3.105 1.714 1.632 3.835 2.124 5.768 2.124 1.476 0 2.843-.287 3.834-.572a15.126 15.126 0 0 0 2.285-.844c2.363-1.188 4.265-2.716 5.652-4.543a13.266 13.266 0 0 0 2.336-4.928c.758-3.126.204-5.63.198-5.654z" fill="#D9C2B5"/><path d="M60.785 26.919c-.576-2.218-1.952-3.802-4.089-4.71a9.518 9.518 0 0 0-3.45-.738 3.926 3.926 0 0 0-1.39.148c-1.608.46-3.248 1.925-4.875 4.353a27.134 27.134 0 0 0-2.184 3.965c-1.444 2.514-4.198 5.211-4.225 5.237-.966.936-1.44 1.964-1.406 3.057.055 1.831 1.533 3.095 1.546 3.105 1.714 1.632 3.835 2.124 5.768 2.124 1.476 0 2.843-.287 3.834-.572a15.126 15.126 0 0 0 2.285-.844c2.363-1.188 4.265-2.716 5.652-4.543a13.266 13.266 0 0 0 2.336-4.928c.758-3.126.204-5.63.198-5.654zm-8.457 10.79a.644.644 0 0 0-.28.41.644.644 0 0 0 .094.488c.022.033.532.798 1.618 1.271-.57.374-1.14.702-1.741 1.005-.09.042-.903.426-2.063.758-2.468.708-5.924 1.064-8.372-1.265-.045-.04-1.089-.985-1.12-2.191-.02-.71.32-1.41 1.011-2.079.119-.114 2.912-2.834 4.467-5.557l.032-.063a27.58 27.58 0 0 1 1.88-3.479c1.036-1.616 2.634-3.646 4.359-4.14a2.716 2.716 0 0 1 .953-.1l.07.002c.05-.004 5.111-.07 6.29 4.46 0 .005.111.51.155 1.328h-.005c-.456 0-.774-.417-.788-.435a.651.651 0 0 0-1.165.277.643.643 0 0 0 .113.483c.327.455.998.978 1.83.978h.017c-.125 2.52-1.028 6.12-4.598 9.052-1.267-.177-1.838-.988-1.861-1.022a.651.651 0 0 0-.896-.182z" fill="#66452E" stroke="#66452E" stroke-width="2"/><path d="M46.178 36.502c-.57-.02-.8-.656-.809-.683a.646.646 0 0 0-.806-.407.636.636 0 0 0-.373.318.636.636 0 0 0-.04.489c.182.561.805 1.523 1.984 1.563a.596.596 0 0 0 .199-.024.639.639 0 0 0 .291-1.053.637.637 0 0 0-.447-.203zm6.265-2.538c-.568-.02-.798-.657-.807-.683a.645.645 0 0 0-.807-.408.637.637 0 0 0-.413.807c.182.562.805 1.523 1.984 1.564a.608.608 0 0 0 .198-.025.639.639 0 0 0-.155-1.255zm1.142-7.256a.637.637 0 0 0-.62-.662c-.554-.019-.782-.614-.806-.681a.64.64 0 0 0-.807-.409.638.638 0 0 0-.413.807c.182.561.805 1.523 1.983 1.564a.613.613 0 0 0 .199-.025.639.639 0 0 0 .464-.594z" fill="#7A563D" stroke="#7A563D"/><path d="M25.114 38.847a7.46 7.46 0 0 0 2.474.436c.104 0 .18-.003.222-.005.356.01.715-.049 1.07-.171 2.9-.998 4.899-6.133 5.116-6.712 1.015-2.002 3.03-4.194 3.05-4.216.71-.762 1.034-1.576.964-2.42-.117-1.42-1.311-2.332-1.321-2.34-2.454-2.103-5.742-1.41-7.484-.81a11.71 11.71 0 0 0-1.73.745c-4.03 2.297-5.372 5.423-5.788 7.64-.459 2.445.07 4.358.075 4.379.535 1.69 1.663 2.86 3.352 3.474z" fill="#D9C2B5"/><path d="M25.114 38.847a7.46 7.46 0 0 0 2.474.436c.104 0 .18-.003.222-.005.356.01.715-.049 1.07-.171 2.9-.998 4.899-6.133 5.116-6.712 1.015-2.002 3.03-4.194 3.05-4.216.71-.762 1.034-1.576.964-2.42-.117-1.42-1.311-2.332-1.321-2.34-2.454-2.103-5.742-1.41-7.484-.81a11.71 11.71 0 0 0-1.73.745c-4.03 2.297-5.372 5.423-5.788 7.64-.459 2.445.07 4.358.075 4.379.535 1.69 1.663 2.86 3.352 3.474zm-1.935-4.48a.506.506 0 0 0 .79-.634c-.273-.34-.819-.72-1.466-.683-.005-1.95.547-4.762 3.182-7.168.988.086 1.454.687 1.474.712a.509.509 0 0 0 .906-.227.504.504 0 0 0-.093-.376c-.017-.024-.439-.592-1.295-.915.42-.308.845-.584 1.297-.84a10.71 10.71 0 0 1 1.561-.67c1.877-.646 4.53-1.06 6.514.638.036.029.879.716.952 1.643.043.547-.19 1.1-.696 1.643-.087.093-2.135 2.308-3.226 4.475l-.022.05c-.02.053-1.983 5.265-4.507 6.134a2.024 2.024 0 0 1-.731.116l-.054.001c-.01.001-.994.07-2.123-.3-1.016-.333-2.346-1.105-2.91-2.888a6.867 6.867 0 0 1-.174-1.013c.347-.016.61.29.621.302z" fill="#66452E" stroke="#66452E" stroke-width="2"/><path d="M32.663 27.381c.449-.008.644.486.646.491a.503.503 0 0 0 .922.02.493.493 0 0 0 .01-.38c-.162-.422-.672-1.128-1.566-1.128h-.03a.498.498 0 0 0 .018.997zm-4.748 2.215h.01c.441-.006.638.47.646.49a.497.497 0 0 0 .466.316.496.496 0 0 0 .467-.675c-.164-.427-.686-1.147-1.598-1.128a.498.498 0 0 0 .009.997zm-.073 6.138c.447-.009.643.485.645.49a.5.5 0 0 0 .933-.36c-.163-.426-.683-1.146-1.597-1.127a.498.498 0 0 0 .018.997z" fill="#7A563D" stroke="#7A563D"/><path d="M40.756 48.318c-5.739-6.913-12.758-3.573-12.829-3.538-1.572.82-2.528 2.133-2.84 3.903a7.348 7.348 0 0 0 .044 2.729c.052.35.171.694.354 1.023 1.486 2.682 6.891 3.76 7.499 3.874 2.114.64 4.576 2.204 4.682 2.271.634.411 1.26.617 1.87.617.23 0 .457-.03.682-.088 1.367-.36 2.068-1.696 2.074-1.708 1.644-2.78.392-5.898-.5-7.509a11.57 11.57 0 0 0-1.036-1.574z" fill="#D9C2B5"/><path d="M40.756 48.318c-5.739-6.913-12.758-3.573-12.829-3.538-1.572.82-2.528 2.133-2.84 3.903a7.348 7.348 0 0 0 .044 2.729c.052.35.171.694.354 1.023 1.486 2.682 6.891 3.76 7.499 3.874 2.114.64 4.576 2.204 4.682 2.271.634.411 1.26.617 1.87.617.23 0 .457-.03.682-.088 1.367-.36 2.068-1.696 2.074-1.708 1.644-2.78.392-5.898-.5-7.509a11.57 11.57 0 0 0-1.036-1.574zM29.163 46a.507.507 0 0 0 .762.667c.288-.327.567-.929.418-1.56 1.92-.344 4.785-.288 7.612 1.888.087.98-.423 1.55-.445 1.574a.507.507 0 0 0 .735.696c.021-.022.508-.545.676-1.434.377.361.722.731 1.053 1.13.019.024.464.58.93 1.422.963 1.736 1.832 4.277.504 6.525-.022.04-.55.99-1.453 1.223-.531.138-1.116.003-1.74-.4-.025-.018-2.633-1.7-4.966-2.4l-.054-.013a21.204 21.204 0 0 1-2.948-.811c-2.531-.905-3.505-1.893-3.876-2.562a2.024 2.024 0 0 1-.241-.7l-.011-.053c-.01-.038-.948-3.831 2.265-5.509.003-.002.358-.17.968-.347.08.344-.186.661-.19.664z" fill="#66452E" stroke="#66452E" stroke-width="2"/><path d="M37.46 55.76a.494.494 0 0 0 .376-.055c.39-.236 1.005-.874.831-1.771a.495.495 0 0 0-.584-.395.5.5 0 0 0-.392.587c.084.431-.352.711-.37.723a.505.505 0 0 0-.168.684.494.494 0 0 0 .306.228zm-3.004-4.28a.497.497 0 0 0 .375-.057c.391-.235 1.006-.873.832-1.77a.495.495 0 0 0-.584-.395.5.5 0 0 0-.392.586c.083.43-.352.711-.37.723a.499.499 0 0 0 .139.913zm-5.828-.652c.084.433-.351.71-.37.722a.501.501 0 0 0 .26.928.493.493 0 0 0 .255-.071c.39-.235 1.005-.873.832-1.77a.495.495 0 0 0-.584-.395.5.5 0 0 0-.393.586z" fill="#7A563D" stroke="#7A563D"/></svg>
